X:1
T:Saksleken (pols)
R:rorospols
Z:StorBrekkingen Track 6
M:9/16
L:1/16
K:D
|: "D"ABc d2e f2d | "A7"dc2 e3- e2f | "A"geg "/b"fdf "/c#"e2c | "D"def dc2 c2B |
|  "A"ABc cE2 E2c | "A"cAc "/b"BGB "/c#"A2F | "D"D2E FDF "A7"ECE | "D"D3  D6 :|
|: "D"a3  af2 d2f | "A"geg "/b"fdf "/c#"e2c | "D"ABc d3  f2d | "A7"dc2 e6  |
|  "D"a3  af2 d2f | "A"geg "/b"fdf "/c#"e2c | "D"ABc d3  "A7"f2d | "D"dc2 d6 :|
